icons/linear-ele-time-stopwatch.svg

<svg xmlns="http://www.w3.org/2000/svg" width="32px" height="32px" viewBox="0 0 32 32" version="1.1">
    <title>linear-ele-time-stopwatch</title>
    <g id="linear-ele-time-stopwatch" stroke-width="1" fill-rule="evenodd">
        <path d="M16,2 C23.7319865,2 30,8.2680135 30,16 C30,23.7319865 23.7319865,30 16,30 C8.2680135,30 2,23.7319865 2,16 C2,8.2680135 8.2680135,2 16,2 Z M16,4 C9.372583,4 4,9.372583 4,16 C4,22.627417 9.372583,28 16,28 C22.627417,28 28,22.627417 28,16 C28,9.372583 22.627417,4 16,4 Z M20.5,7.93782217 C20.7505624,8.08248445 20.8613884,8.38594866 20.7630254,8.65803948 L17.1180001,18.740874 C16.6463884,20.0454419 15.2065103,20.7206863 13.9019424,20.2490745 C13.7627155,20.1987429 13.628211,20.1362005 13.5,20.0621778 C12.2986523,19.3685794 11.8870402,17.8324221 12.5806386,16.6310745 C12.6546613,16.5028634 12.7398744,16.3814479 12.8352826,16.2682459 L19.7447608,8.07014416 C19.9312169,7.84891389 20.2494376,7.7931599 20.5,7.93782217 Z" id="&#24418;&#29366;" fill-rule="nonzero" />
    </g>
</svg>

<svg xmlns="http://www.w3.org/2000/svg" viewBox="0 0 32 32"><path fill="currentColor" d="M16 2c7.732 0 14 6.268 14 14s-6.268 14-14 14S2 23.732 2 16 8.268 2 16 2m0 2C9.373 4 4 9.373 4 16s5.373 12 12 12 12-5.373 12-12S22.627 4 16 4m4.5 3.938c.25.144.361.448.263.72l-3.645 10.083a2.512 2.512 0 1 1-4.283-2.473l6.91-8.198a.597.597 0 0 1 .755-.132"/></svg>
